icons/add-rasters-24.svg

<svg xmlns="http://www.w3.org/2000/svg" viewBox="0 0 24 24"><path d="M19 24v-4.001h-4V19h4v-4h1v4h4v.999h-4V24zm3-22v7h-4V6h-2v1h-1V6h-2v1h-1V2h10zm-7 1h-2v2h2zm3 0h-2v2h2zm3 3h-2v2h2zm0-3h-2v2h2zm-4 5v7h-4v-3h-2v1h-1v-1H8v1H7V8h10zm-7 1H8v2h2zm3 0h-2v2h2zm3 3h-2v2h2zm0-3h-2v2h2zm-4 5v7H2v-7h10zm-6 1v2h2v-2zm-3 0v2h2v-2zm2 5v-2H3v2zm3 0v-2H6v2zm3 0v-2H9v2zm0-5H9v2h2z"/><path d="M16 6h2v1h-2zm-5 7h2v-1h-2zm-5 7h2v-2H6z" opacity=".5"/><path d="M13 3h2v2h-2zm6 2h2V3h-2zM8 11h2V9H8zm6 0h2V9h-2zM3 17h2v-2H3zm6 0h2v-2H9z" opacity=".25"/><path fill="none" d="M0 0h24v24H0z"/></svg>

<svg id="icons" xmlns="http://www.w3.org/2000/svg" viewBox="0 0 24 24"><defs><style>.cls-1{opacity:0.5;}.cls-2{opacity:0.25;}.cls-3{fill:none;}</style></defs><path d="M18.99994,24V19.999h-4V19h4V15h1v4H24v.999H19.99994V24ZM22,2V9H18V6H16V7H15V6H13V7H12V2H22ZM15,3H13V5h2Zm3,0H16V5h2Zm3,3H19V8h2Zm0-3H19V5h2ZM16.99994,8v7H13V13h-.00006V12h-2v1h-1V12h-2v1h-1V8h10Zm-7,1h-2v2h2Zm3,0h-2v2h2Zm3,3h-2v2h2Zm0-3h-2v2h2ZM12,14v7H2V14H12ZM6,15v2H8V15ZM3,15v2H5V15Zm2,5V18H3v2Zm3,0V18H6v2Zm3,0V18H9v2Zm0-5H9v2h2Z"/><path class="cls-1" d="M16,6h2V7H16Zm-5,7h2v-1H11ZM6,20H8V18H6Z"/><path class="cls-2" d="M13,3h2V5H13Zm6,2h2V3H19ZM8,11h2V9H8Zm6,0h2V9H14ZM3,17H5V15H3Zm6,0h2V15H9Z"/><rect class="cls-3" width="24" height="24"/></svg>
